X: 26819
T: Mills Are Grinding, The
R: reel
M: 4/4
K: Gmajor
E|DGGF G2GA|BGBd cAGF|D2DE FEFG|AdcA BGAF|
DGGF G2GA|BGBd cAFA|d2de fdcA|AGFA G3:|
B|dggf g2ga|bgga bgaf|d2de fefg|agfg aggf|
dggf g2ga|bgga bgaf|d2de fdcA|AGFA G3:|
"Variation"
E|DGGF ~G3A|BGBd cAGF|DFFE ~F3G|ABcA BGAF|
DGGF ~G3A|BGBd cAFA|d2 e/f/g fdcA|FGAF ~G3:|
B|dggf ~g3a|bg~g2 bgaf|dffe ~f3g|agfg ag~g2|
dggf ~g3a|bg~g2 bgaf|d2 e/f/g fdcA|FGAF ~G3:|

